!!!!SEGMENT: pl-wumfc--n28541--008_moniuszko-stanislaw--verbum-nobile-7-dumka-zuzi.krn
!!!cenid: 18xx:4214
!!!COM: Moniuszko, Stanisław
!!!COM-rismID: pe30008351
!!!CDT: 1819/05/05-1872/06/04
!!!CNT: Polish
!!!GTL: Verbum nobile
!!!OTL: 7. Dumka Zuzi
!!!OMV: 008
!!!PDT:
!!!AGN:
!!!SMS-siglum: PL-Wumfc
!!!SMS-shelfmark: N28541
!!!SMS-variant:
!!!SMS-altvar:
!!!SMS-shelfwork: 008-008 G
!!!NIFC-rismSourceID: 1001152972
!!!NIFC-rismChildID: 1001152972
!!!NIFC-islandoraID: pl-wumfc:3225
!!!URL-pdf-islandora: https://repozytorium.nifc.pl/islandora/object/pl-wumfc:3225/datastream/PDF/view
!!!URL-scan: https://polish.musicsources.pl/pl/lokalizacje/galeria/druki-muzyczne/12012/29 @EN{Scan on Polish Music Sources Website} @PL{Skany w portalu Dziedzictwo Muzyki Polskiej w otwartym dostępie}
!!!IIIF:
!!!ONB-nifc: Skany 0029-0032
!!!OMD: Moderato. [quarter]=72.
!!!AIN: 1 piano 1 vox
!!!key: g
**kern	**kern	**dynam	**kern	**text	**dynam
*part2	*part2	*part2	*part1	*part1	*part1
*staff3	*staff2	*	*staff1	*staff1	*
*I"Piano.	*I"Piano.	*	*I"[Voce]	*	*
*I'	*I'	*	*I'	*	*
*Ipiano	*Ipiano	*	*Ivox	*	*
*ICklav	*ICklav	*	*ICvox	*	*
*IGacmp	*IGacmp	*	*IGsolo	*	*
*clefF4	*clefG2	*	*clefG2	*	*
*k[b-e-]	*k[b-e-]	*	*k[b-e-]	*	*
*g:	*g:	*	*g:	*	*
*M4/4	*M4/4	*	*M4/4	*	*
*met(c)	*met(c)	*	*met(c)	*	*
=1	=1	=1	=1	=1	=1
8GG/	4r	p	2r	.	.
8r	.	.	.	.	.
8G 8D\	8b- 8g 8d 8B-/	.	.	.	.
8r	8r	.	.	.	.
8GG/	4r	.	4r	.	.
8r	.	.	.	.	.
4r	8b- 8g 8d/	.	8.b-\	Jak	.
.	8r	.	.	.	.
.	.	.	16b-\	tu	.
=2	=2	=2	=2	=2	=2
8AA/	4r	.	(4a/	u-	.
8r	.	.	.	.	.
8.AL 8.G\	8.enL 8.c#X/	.	8.en/)	.	.
16AJk 16F\	16fJk 16d/	.	16f/	-jąć	.
8A 8En\	8g 8e/	.	4.g/	żal	.
8r	8r	.	.	.	.
8A\	8a 8e 8c#/	.	.	.	.
8r	8r	.	8a/	na	.
=3	=3	=3	=3	=3	=3
*	*^	*	*	*	*
4D\	(>4g/	2.ryy	.	4g/	wo-	.
4r	8f 8d 8A/)	.	.	4f/	-dze,	.
.	8r	.	.	.	.	.
4BB-/	4r	.	.	4r	.	.
4r	8.a^/L	4d 4B-\	.	8.a/	wmó-	.
.	16g/Jk	.	.	16g/	-wić	.
*	*v	*v	*	*	*	*
!!LO:LB:g=original
=4	=4	=4	=4	=4	=4
8C/	8f/	.	(4f/	w_sie-	.
8r	8r	.	.	.	.
8.FL 8.E-X\	8.cL 8.A/	.	8.c/)	.	.
16FJk 16D\	16dJk 16B-/	.	16d/	-bie	.
8F 8C\	8e- 8c/	.	4.e-/	że	.
8r	8r	.	.	.	.
4F\	4f 4c 4A/	.	.	.	.
.	.	.	8f/	to	.
=5	=5	=5	=5	=5	=5
*	*^	*	*	*	*
8BB-/	4r	4ryy	.	4d/	szał!	.
8r	.	.	.	.	.	.
8B-\	[2dd^/	8f 8d\	.	4r	.	.
8r	.	8r	.	.	.	.
8BB-/	.	4r	.	4.cc^\	Cze-	.
8r	.	.	.	.	.	.
8B- 8G\	8dd/L]	8en 8d\	.	.	.	.
8r	8b-/J	[8r	.	8b-\	-muś	.
=6	=6	=6	=6	=6	=6	=6
8AA/	8a/	4r]	.	(4a/	Sta-	.
8r	8r	.	.	.	.	.
8.En\L	(8f#X/L	4c#X\	.	8f#X/)	.	.
.	8g/J	.	.	8g/	-chu	.
16E\Jk	.	.	.	.	.	.
4D\	8b-/)	4d\	.	4.b-^>/	mnie	.
.	8r	.	.	.	.	.
4G 4C#X\	4en 4B-/	4ryy	.	.	.	.
.	.	.	.	16a/LL	nie-	.
.	.	.	.	16g/JJ	.	.
!!LO:LB:g=original
=7	=7	=7	=7	=7	=7	=7
*^	*	*	*	*	*	*
8D\	2ryy	4r	2.ryy	.	4g/	-bo-	.
8r	.	.	.	.	.	.	.
4r	.	8f 8d 8A/	.	.	8f/	-dze	.
.	.	8r	.	.	8r	.	.
4r	(2E-X\	4r	.	.	4r	.	.
(4A/	.	8.g-X/L	4c\	.	8.g-X/	co	.
.	.	16f/Jk	.	.	16f/	ko-	.
=8	=8	=8	=8	=8	=8	=8	=8
8B-/)	8D-X\)	8f/	4ryy	.	(4f/	-cha-	<
8r	8ryy	8r	.	.	.	.	.
[4F/	8.D-\L	[4f/	8.B-\L	.	16gn/LL	.	.
.	.	.	.	.	16a/JJ)	.	.
.	.	.	.	.	16b-\LL	-nie	.
.	16C\Jk	.	16c\Jk	.	16cc\JJ	.	[
8F/]	8BB-\	8f/]	8d-X\	.	4.dd-X\	po-	>
8r	8ryy	8r	8ryy	.	.	.	.
([4C 4GG-X/	4ryy	(>4en [4B-/	4ryy	.	.	.	.
.	.	.	.	.	8en/	-znać	]
*v	*v	*	*	*	*	*	*
*	*v	*v	*	*	*	*
=9	=9	=9	=9	=9	=9
8C] 8FF/)	8f 8B-/])	.	4f/	dał!	.
8r	8r	.	.	.	.
(4F\	8f 8c 8A/	.	4r	.	.
.	8r	.	.	.	.
8FF/)	4r	.	4.ddn^\	Cze-	.
8r	.	.	.	.	.
4r	8f 8e-X 8A/	.	.	.	.
.	8r	.	8cc\	-mu	.
!!LO:PB:g=original
=10	=10	=10	=10	=10	=10
8BB-/	4r	.	4.b-\	przy-	.
8r	.	.	.	.	.
4r	8f 8d 8B-/	.	.	.	.
.	8r	.	8f/	-szłość	.
8BB-/	4r	.	8en/L	o-	.
8r	.	.	8f/	.	.
4r	(>4f 4d 4B-/	.	8g-X/J	.	.
.	.	.	8qb-/	.	.
.	.	.	8a-X/	-bok	.
=11	=11	=11	=11	=11	=11
(4E-\	8g-X/)	.	2g-X/	cie-	.
.	8r	.	.	.	.
8e- 8B- 8G-X\)	(16a/LL	pp	.	.	.
.	16cc/	.	.	.	.
8r	16b-/	.	.	.	.
.	16e-/JJ	.	.	.	.
8E-\	8g-/)	.	8e-X/	-bie	.
8r	8r	.	8r	.	.
4r	8g- 8e- 8B-/	.	8.ee-X\	wśród	.
.	8r	.	.	.	.
.	.	.	16dd-X\	pięk-	.
!!LO:LB:g=original
=12	=12	=12	=12	=12	=12
8E-\	4r	.	4.cc-X^\	-niej-	.
8r	.	.	.	.	.
4r	8g-X 8c-X 8G-X/	.	.	.	.
.	8r	.	8g-X/	-szych	.
8E-\	4r	.	8e-/L	bły-	.
8r	.	.	8f-X/	.	.
4r	8g- 8c-/	.	8fn/J	.	.
.	8r	.	8g-/	-sła	.
=13	=13	=13	=13	=13	=13
*	*^	*	*	*	*
(4En\	8gn/	2ryy	.	[2gn/	szat	.
.	8r	.	.	.	.	.
8gn 8B-\)	(16bn/LL	.	pp	.	.	.
.	16dd/	.	.	.	.	.
8r	16ccn/	.	.	.	.	.
.	16b-X/JJ	.	.	.	.	.
8C/	8g/)	4ryy	.	8g/]	\!	.
8r	8r	.	.	8r	.	.
4r	8.a/L	8en 8B-\	.	8.a/	w_du-	.
.	.	8r	.	.	.	.
.	16g/Jk	.	.	16g/	-szy	.
*	*v	*v	*	*	*	*
!!LO:LB:g=original
=14	=14	=14	=14	=14	=14
8F\	8f/	.	4.f/	ja-	.
8r	8r	.	.	.	.
4r	8f 8e-X 8c 8A/	.	.	.	<
.	8r	.	8f/	-sno	.
8AA/	4r	.	8g/L	jak-	.
8r	.	.	8a/J	.	.
4r	8cc 8f 8e-/	.	8b-\L	-by	.
.	8r	.	8cc\J	.	[
=15	=15	=15	=15	=15	=15
*^	*	*	*	*	*
8BB-/	2ryy	4r	f	8cc#X\	w_nie-	.
8r	.	.	.	8dd\	-bie,	.
4r	.	8b- 8f 8d/	.	([4ff^\	a	.
.	.	8r	.	.	.	.
4ryy	4C\	4r	p	16ff\LL]	.	.
.	.	.	.	16een\	.	.
.	.	.	.	16ccn\	.	.
.	.	.	.	16dd\JJ	.	.
8G/	4r	8b- 8en 8c/	.	16cc\LL	.	.
.	.	.	.	16b-\JJ)	.	.
8r	.	8r	.	16g/LL	do-	.
.	.	.	.	16a/JJ	.	.
*v	*v	*	*	*	*	*
!!LO:LB:g=original
=16	=16	=16	=16	=16	=16
8F\	4r	.	(4f/	-ko-	.
8r	.	.	.	.	.
4r	8b- 8f 8d/	.	16d/LL	.	.
.	.	.	16e-/JJ)	.	.
.	8r	.	16en/LL	-ła	.
.	.	.	16f/JJ	.	.
8FF/	4r	.	4.dd\	le-	.
8r	.	.	.	.	.
4r	8a 8f 8e-/	.	.	.	.
.	8r	.	8cc\	-pszy	.
=17	=17	=17	=17	=17	=17
8BB-/	4r	.	4b-\	świat.	.
8r	.	.	.	.	.
4r	8b- 8f 8d/	.	4r	.	.
.	8r	.	.	.	.
8B-\	4r	.	2r	.	.
8r	.	.	.	.	.
!	!LO:TX:b:i:t=dolce	!	!	!	!
8f 8d\	8.dddL 8.dd\	.	.	.	.
8r	.	.	.	.	.
.	16cccJk 16cc\	.	.	.	.
=18	=18	=18	=18	=18	=18
*ped	*	*	*	*	*
8BB-/	(4.bb- 4.b-\	.	1r	.	.
8r	.	.	.	.	.
*clefG2	*	*	*	*	*
8f 8d/	.	.	.	.	.
8r	8ff\	.	.	.	.
*Xped	*	*	*	*	*
8B-/	8een\L	.	.	.	.
8r	8ff\	.	.	.	.
8b- 8d/	8gg-X\	.	.	.	.
.	8qbb-/	.	.	.	.
8r	8aa-X\J)	.	.	.	.
*clefF4	*	*	*	*	*
!!LO:PB:g=original
=19	=19	=19	=19	=19	=19
8E-\	4gg-X\	.	4r	.	.
8r	.	.	.	.	.
*clefG2	*	*	*	*	*
8g-X 8B-/	16aa\LL	pp	8.a/	Cze-	.
.	(16ccc\	.	.	.	.
8r	16bb-\	.	.	.	.
.	16ee-\JJ	.	16b-\	-mu	.
8G-X/	8gg-\)	.	8.b-\	przy-	.
8r	8r	.	.	.	.
.	.	.	16b-\	-szłość	.
8e- 8B-/	8.eee-L 8.ee-\	.	8.b-\	o-	.
8r	.	.	.	.	.
.	16ddd-XJk 16dd-X\	.	16b-\	-bok	.
*clefF4	*	*	*	*	*
=20	=20	=20	=20	=20	=20
*ped	*	*	*	*	*
8E-\	(4.ccc-X 4.cc-X^\	.	2.cc-X\	cie-	.
8r	.	.	.	.	.
*clefG2	*	*	*	*	*
8g-X 8c-X/	.	.	.	.	.
*Xped	*	*	*	*	*
8r	8gg-X\	.	.	.	.
8G-X/	8ee-\L	.	.	.	.
8r	8ff-X\	.	.	.	.
8e- 8c-/	8ffn\	.	8cc-\	-bie	.
8r	8gg-\J)	.	8r	.	.
*clefF4	*	*	*	*	*
!!LO:LB:g=original
=21	=21	=21	=21	=21	=21
(4En\	4ggn\	.	4r	.	.
8gn 8B-\)	(16bbn\LL	pp	8.bn\	wśród	.
.	16ddd\	.	.	.	.
8r	16cccn\	.	.	.	.
.	16bb-X\JJ	.	16ccn\	pięk-	.
8C/	8gg\)	.	8.cc\	-niej-	.
8r	8r	.	.	.	.
.	.	.	16b-X\	-szych	.
8en 8B-\	8.aaL 8.a\	.	8.a/	bły-	.
8r	.	.	.	.	.
.	16ggJk 16g\	.	16g/	-sła	.
=22	=22	=22	=22	=22	=22
8FF/	2ff 2f\	.	8f/	szat,	.
8r	.	<	8r	.	.
8c 8A\	.	.	8en/	w_du-	.
8r	.	.	8f/	-szy	.
8FF/	2ee-X 2cc 2f\	.	8g/	jak-	<
8r	.	.	8a/	-by	.
8c 8F\	.	.	8b-\	w_nie-	.
8r	.	.	8cc\	-bie,	[
!!LO:LB:g=original
=23	=23	=23	=23	=23	=23
*^	*	*	*	*	*
2.B-/	(4BB-\	(4dd 4f/	.	(8dd\L	a	.
.	.	.	.	8ff\J	.	.
.	4D\	4ff 4a-X\	[	[4aa-X\	.	.
.	2E-\	4ee- 4g-X;\	f	16aa-;\LL]	.	.
.	.	.	>	16gg-X\	.	.
.	.	.	.	16ee-\	.	.
.	.	.	.	16b-\JJ	.	.
4c-X/	.	4g- 4e-/	.	16dd-X/LL	.	.
.	.	.	.	16cc-X/	.	.
.	.	.	.	16g-X/	.	.
.	.	.	]	16e-/JJ	.	.
*v	*v	*	*	*	*	*
=24	=24	=24	=24	=24	=24
4F\)	8f 8d/)	p	8dn/)	.	.
.	8r	.	16r	.	.
.	.	.	16e-/	do	.
(8.B-\L	8dd 8f 8d/	.	16en/LL	ko-	.
.	.	.	16f/JJ	.	.
.	.	.	8qa/	.	.
.	8r	.	16g/LL	-ła	.
16F\Jk)	.	.	16f/JJ	.	.
8F\	4r	.	4.ff\	le-	.
8r	.	.	.	.	.
4r	8cc 8a 8f 8e-/	.	.	.	.
.	8r	.	16ee-X\LL	-pszy	.
.	.	.	16cc\JJ	.	.
!!LO:LB:g=original
=25	=25	=25	=25	=25	=25
8r	8r	.	8a/	świat,	.
8D'\L	8aL 8g-X 8c'/	.	8r	.	.
8E-'\	8a 8f 8c'/	.	4r	.	.
8En'\J	8aJ 8en 8c'/	.	.	.	.
8.F\L	[2a 2e-X 2c/	.	2r	.	.
16G-X\Jk	.	.	.	.	.
[<4G-^\	.	.	.	.	.
=26	=26	=26	=26	=26	=26
*^	*^	*	*	*	*
8.c/L	(2G-\]	8.a/L]	8.e-\L	<	16a/LL	a	.
.	.	.	.	.	16b-/JJ	.	.
.	.	.	.	.	16cc\LL	do	.
16B-/Jk	.	16b-/Jk	16e-\Jk	[	16dd\JJ	.	.
[4A/	.	[4cc/	[4e-\	sf >	[4ee-;\	ko-	.
!	!	!	!	!LO:DY:b=2	!	!	!
8A/]	8F\)	8cc/]	8e-\]	] p	16ee-\]	.	.
.	.	.	.	.	16f/	-ła,	.
8r	8ryy	8r	8ryy	.	16en/	a	.
.	.	.	.	.	16f/	do	.
4r;	4ryy	4r;	4ryy	.	16g/	ko-	.
.	.	.	.	.	16f/	-ła	.
.	.	.	.	.	16.dd;\	le-	.
.	.	.	.	.	32cc\	-pszy	.
*	*	*v	*v	*	*	*	*
!!LO:PB:g=original
=27	=27	=27	=27	=27	=27	=27
*ped	*	*	*	*	*	*
4BB- 4BBB-/	2ryy	8b- 8d/	.	4b-\	świat,	.
.	.	8r	.	.	.	.
4B- 4F 4D/	.	(16ff\LL	f	4r	.	.
*Xped	*	*	*	*	*	*
.	.	16een\	.	.	.	.
.	.	16gg\	.	.	.	.
.	.	16ff\JJ	.	.	.	.
4r	2BB-\	8bb-\)	.	2r	.	.
.	.	8r	.	.	.	.
4B- 4F 4D/	.	(16aa\LL	.	.	.	.
.	.	16bb-\	.	.	.	.
.	.	16ccc\	.	.	.	.
.	.	16bb-\JJ	.	.	.	.
=28	=28	=28	=28	=28	=28	=28
*	*	*^	*	*	*	*
4r	2BB-\	8gg\)	2ryy	.	1r	.	.
.	.	8r	.	.	.	.	.
!	!	!	!	!LO:HP:a	!	!	!
4B- 4G 4E-/	.	(16cc\LL	.	<	.	.	.
.	.	16bn\	.	.	.	.	.
.	.	16dd\	.	.	.	.	.
.	.	16cc\JJ	.	.	.	.	.
4r	2BB-\	4ff/	2f\	[	.	.	.
!	!	!	!	!LO:HP:a	!	!	!
.	.	.	.	>	.	.	.
4A 4F 4C/	.	16ee-/LL	.	.	.	.	.
.	.	16dd/	.	.	.	.	.
.	.	16cc/	.	.	.	.	.
.	.	16dd/JJ	.	]	.	.	.
*v	*v	*	*	*	*	*	*
*	*v	*v	*	*	*	*
=29	=29	=29	=29	=29	=29
4BB-/	8b-/)	.	1r	.	.
.	8r	.	.	.	.
8B- 8F 8D\	(16f/LL	p	.	.	.
.	16en/	.	.	.	.
8r	16g/	.	.	.	.
.	16f/JJ	.	.	.	.
8DD/	4b-/)	.	.	.	.
8r	.	.	.	.	.
8F 8D\	(16a/LL	.	.	.	.
.	16b-/	.	.	.	.
8r	16cc/	.	.	.	.
.	16b-/JJ	.	.	.	.
!!LO:LB:g=original
=30	=30	=30	=30	=30	=30
8EE-/	(4g/)	.	1r	.	.
8r	.	.	.	.	.
8c 8G 8E-\	16cc\LL	.	.	.	.
.	16bn\	.	.	.	.
8r	16dd\	.	.	.	.
.	16cc\JJ	.	.	.	.
8FF/	8.ff^\L	pp	.	.	.
8r	.	.	.	.	.
.	32ee-\LL	.	.	.	.
!	!LO:TX:b:i:t=riten.	!	!	!	!
.	32cc\JJJ	.	.	.	.
8A 8F 8C\	16a'/LL	.	.	.	.
.	16f'/	.	.	.	.
8r	16e-'/	.	.	.	.
.	16c'/JJ)	.	.	.	.
=31	=31	=31	=31	=31	=31
4BB-/	4B-/	.	2r	.	.
8B- 8F 8D\	4r	.	.	.	.
8r	.	.	.	.	.
8GG/	4r	.	4r	.	.
8r	.	.	.	.	.
4r	8b- 8g 8d/	.	8.b-\	Te-	.
.	8r	.	.	.	.
.	.	.	16b-\	-raz	.
=32	=32	=32	=32	=32	=32
8AA/	4r	.	(4a/	kie-	.
8r	.	.	.	.	.
8.AL 8.G\	8.enL 8.c#X/	.	8.en/)	.	.
16AJk 16F\	16fJk 16d/	.	16f/	-dy	.
8A 8En\	8g 8e/	.	4.g/	w_in-	.
8r	8r	.	.	.	.
8A\	8a 8e 8c#/	.	.	.	.
8r	8r	.	8a/	-ną	.
!!LO:LB:g=original
=33	=33	=33	=33	=33	=33
*	*^	*	*	*	*
4D\	(>4g/	2.ryy	.	4g/	stro-	.
4r	8f 8d 8A/)	.	.	4f/	-nę	.
.	8r	.	.	.	.	.
4BB-/	4r	.	.	4r	.	.
4r	8.a^/L	4d 4B-\	.	8.a/	los	.
.	16g/Jk	.	.	16g/	od-	.
*	*v	*v	*	*	*	*
=34	=34	=34	=34	=34	=34
8C/	8f/	.	(4f/	-bie-	.
8r	8r	.	.	.	.
8.FL 8.E-X\	8.cL 8.A/	.	8.c/)	.	.
16FJk 16D\	16dJk 16B-/	.	16d/	-żyć	.
8F 8C\	8e- 8c/	.	4.e-/	ka-	.
8r	8r	.	.	.	.
4F\	4f 4c 4A/	.	.	.	.
.	.	.	8f/	-że	.
!!LO:LB:g=original
=35	=35	=35	=35	=35	=35
*	*^	*	*	*	*
8BB-/	4r	4ryy	.	4d/	ci,	.
8r	.	.	.	.	.	.
8B-\	[2dd^/	8f 8d\	.	4r	.	.
8r	.	8r	.	.	.	.
8GG/	.	4r	.	4.cc^\	mo-	.
8r	.	.	.	.	.	.
8B- 8G\	8dd/L]	8en 8d\	.	.	.	.
8r	8b-/J	8r	.	8b-\	-je	.
=36	=36	=36	=36	=36	=36	=36
8AA/	8a/	4ryy	.	(4a/	słon-	.
8r	8r	.	.	.	.	.
8.En\L	(8f#X/L	4c#X\	.	8f#X/)	.	.
.	8g/J	.	.	8g/	-ce	.
16E\Jk	.	.	.	.	.	.
4D\	8b-/)	4d\	.	4.b-^>/	za-	.
.	8r	.	.	.	.	.
4G 4C#X\	4en 4B-/	4ryy	.	.	.	.
.	.	.	.	16a/LL	-chmu-	.
.	.	.	.	16g/JJ	.	.
!!LO:PB:g=original
=37	=37	=37	=37	=37	=37	=37
*^	*	*	*	*	*	*
2ryy	8D\	4r	2.ryy	.	4g/	-rzo-	.
.	8r	.	.	.	.	.	.
.	4r	8f 8d 8A/	.	.	8f/	-ne,	.
.	.	8r	.	.	8r	.	.
4r	(2E-X\	4r	.	.	4r	.	.
(4A/	.	8.g-X/L	4c\	.	8.g-X/	w_ser-	.
.	.	16f/Jk	.	.	16f/	-cu	.
=38	=38	=38	=38	=38	=38	=38	=38
8B-/)	8D-X\)	8f/	4ryy	.	(4f/	tę-	<
8r	8ryy	8r	.	.	.	.	.
[4F/	8.D-\L	[4f/	8.B-\L	.	16gn/LL	.	.
.	.	.	.	.	16a/JJ)	.	.
.	.	.	.	.	16b-\LL	-skno,	.
.	16C\Jk	.	16c\Jk	.	16cc\JJ	.	[
8F/]	8BB-\	8f/]	8d-X\	.	4.dd-X\	w_o-	>
8r	8ryy	8r	8ryy	.	.	.	.
([4C 4GG-X/	4ryy	(>4en [4B-/	4ryy	.	.	.	.
.	.	.	.	.	8en/	-czach	]
*v	*v	*	*	*	*	*	*
*	*v	*v	*	*	*	*
!!LO:LB:g=original
=39	=39	=39	=39	=39	=39
8C] 8FF/)	8f 8B-/])	.	4f/	łzy!	.
8r	8r	.	.	.	.
(4F\	8f 8c 8A/	.	4r	.	.
.	8r	.	.	.	.
8FF/)	4r	.	4.ddn^\	Już	.
8r	.	.	.	.	.
4r	8f 8e-X 8A/	.	.	.	.
.	8r	.	8cc\	się	.
=40	=40	=40	=40	=40	=40
8BB-/	4r	.	4.b-\	z_ży-	.
8r	.	.	.	.	.
4r	8f 8d 8B-/	.	.	.	.
.	8r	.	8f/	-ciem	.
8BB-/	4r	.	8en/L	nie-	.
8r	.	.	8f/	.	.
4r	(>4f 4d 4B-/	.	8g-X/J	.	.
.	.	.	8qb-/	.	.
.	.	.	8a-X/	-po-	.
!!LO:LB:g=original
=41	=41	=41	=41	=41	=41
(4E-\	8g-X/)	.	2g-X/	-go-	.
.	8r	.	.	.	.
!	!	!LO:DY:a	!	!	!
8e- 8B- 8G-X\)	(16a/LL	pp	.	.	.
.	16cc/	.	.	.	.
8r	16b-/	.	.	.	.
.	16e-/JJ	.	.	.	.
8E-\	8g-/)	.	8e-X/	-dzę	.
8r	8r	.	8r	.	.
4r	8g- 8e- 8B-/	.	8.ee-X\	żal	.
.	8r	.	.	.	.
.	.	.	16dd-X\	w_niem	.
=42	=42	=42	=42	=42	=42
8E-\	4r	.	4.cc-X^\	wiecz-	.
!LO:N:vis=8.	!	!	!	!	!
8r	.	.	.	.	.
4r	8g-X 8c-X 8G-X/	.	.	.	.
.	8r	.	8g-X/	-ny	.
8E-\	4r	.	8e-/L	bę-	.
8r	.	.	8f-X/	.	.
4r	8g- 8c-/	.	8fn/J	.	.
.	8r	.	8g-/	-dzie	.
!!LO:LB:g=original
=43	=43	=43	=43	=43	=43
*	*^	*	*	*	*
(4En\	8gn/	2.ryy	.	[2gn/	tlał	.
.	8r	.	.	.	.	.
!	!	!	!LO:DY:a	!	!	!
8gn 8B-\)	(16bn/LL	.	pp	.	.	.
.	16dd/	.	.	.	.	.
8r	16cc/	.	.	.	.	.
.	16b-X/JJ	.	.	.	.	.
8C/	8g/)	.	.	8g/]	,	.
8r	8r	.	.	8r	.	.
4r	8.a/L	8en 8B-\	.	8.a/	cze-	.
.	.	8r	.	.	.	.
.	16g/Jk	.	.	16g/	-muś	.
*	*v	*v	*	*	*	*
=44	=44	=44	=44	=44	=44
8F\	8f/	.	(4.f/	Sta-	.
8r	8r	.	.	.	.
4r	8f 8e-X 8c 8A/	.	.	.	.
.	8r	.	16en/LL	.	.
.	.	.	16f/JJ	.	.
8AA/	4r	.	16g/LL	.	.
.	.	.	16f/	.	.
8r	.	.	16b-/	.	.
.	.	.	16a/JJ	.	.
4r	8cc 8f 8e-/	.	16dd\LL	.	.
.	.	.	16cc\	.	.
.	8r	.	16ee-X\	.	.
.	.	.	16dd\JJ)	.	.
!!LO:PB:g=original
=45	=45	=45	=45	=45	=45
*^	*	*	*	*	*
8BB-/	2ryy	4r	f	([4gg\	.	.
8r	.	.	.	.	.	.
4r	.	8b- 8f 8d/	.	16gg\LL]	.	.
.	.	.	.	16ff\	.	.
.	.	8r	.	16dd\	.	.
.	.	.	.	16a\JJ	.	.
4ryy	4C\	4r	p	[4cc\	.	.
8G/	4r	8b- 8en 8c/	.	16cc\LL]	.	.
.	.	.	.	16b-\JJ)	.	.
8r	.	8r	.	16g/LL	-chu	.
.	.	.	.	16en/JJ	.	.
*v	*v	*	*	*	*	*
=46	=46	=46	=46	=46	=46
8F\	4r	.	8f/	co	.
8r	.	.	16r	.	.
.	.	.	16f/	ko-	.
4r	8b- 8f 8d/	.	16d/LL	-cha-	.
.	.	.	16e-/JJ	.	.
.	8r	.	16en/LL	-nie	.
.	.	.	16f/JJ	.	.
8FF/	4r	.	4.dd\	po-	.
8r	.	.	.	.	.
4r	8a 8f 8e-/	.	.	.	.
.	8r	.	8cc\	-znać	.
!!LO:LB:g=original
=47	=47	=47	=47	=47	=47
8BB-/	4r	.	4b-\	dał!	.
8r	.	.	.	.	.
4r	8b- 8f 8d/	.	4r	.	.
.	8r	.	.	.	.
8B-\	4r	.	2r	.	.
8r	.	.	.	.	.
!	!LO:TX:b:i:t=dolce	!	!	!	!
8f 8d\	8.dddL 8.dd\	.	.	.	.
8r	.	.	.	.	.
.	16cccJk 16cc\	.	.	.	.
=48	=48	=48	=48	=48	=48
*ped	*	*	*	*	*
8BB-/	(4.bb- 4.b-\	.	1r	.	.
8r	.	.	.	.	.
*clefG2	*	*	*	*	*
8f 8d/	.	.	.	.	.
8r	8ff\	.	.	.	.
*Xped	*	*	*	*	*
8B-/	8een\L	.	.	.	.
8r	8ff\	.	.	.	.
8b- 8d/	8gg-X\	.	.	.	.
.	8qbb-/	.	.	.	.
8r	8aa-X\J)	.	.	.	.
*clefF4	*	*	*	*	*
!!LO:LB:g=original
=49	=49	=49	=49	=49	=49
8E-\	4gg-X\	.	4r	.	.
8r	.	.	.	.	.
*clefG2	*	*	*	*	*
8g-X 8B-/	16aa\LL	pp	8.a/	Już	.
.	(16ccc\	.	.	.	.
8r	16bb-\	.	.	.	.
.	16ee-\JJ	.	16b-\	się	.
8G-X/	8gg-\)	.	8.b-\	z_ży-	.
8r	8r	.	.	.	.
.	.	.	16b-\	-ciem	.
8e- 8B-/	8.eee-L 8.ee-\	.	8.b-\	nie-	.
8r	.	.	.	.	.
.	16ddd-XJk 16dd-X\	.	16b-\	-po-	.
*clefF4	*	*	*	*	*
=50	=50	=50	=50	=50	=50
*ped	*	*	*	*	*
8E-\	(4.ccc-X 4.cc-X^\	.	2.cc-X\	-go-	.
8r	.	.	.	.	.
*clefG2	*	*	*	*	*
8g-X 8c-X/	.	.	.	.	.
*Xped	*	*	*	*	*
8r	8gg-X\	.	.	.	.
8G-X/	8ee-\L	.	.	.	.
8r	8ff-X\	.	.	.	.
8e- 8c-/	8ffn\	.	8cc-\	-dzę,	.
8r	8gg-\J)	.	8r	.	.
*clefF4	*	*	*	*	*
!!LO:LB:g=original
=51	=51	=51	=51	=51	=51
(4En\	4ggn\	.	4r	.	.
8gn 8B-\)	(16bbn\LL	pp	8.bn\	żal	.
.	16ddd\	.	.	.	.
8r	16ccc\	.	.	.	.
.	16bb-X\JJ	.	16ccn\	w_niem	.
8C/	4gg\)	.	8.cc\	wiecz-	.
8r	.	.	.	.	.
.	.	.	16b-X\	-ny	.
8en 8B-\	8.aaL 8.a\	.	8.a/	bę-	.
8r	.	.	.	.	.
.	16ggJk 16g\	.	16g/	-dzie	.
=52	=52	=52	=52	=52	=52
8FF/	2ff 2f\	.	8f/	tlał,	.
8r	.	.	8r	.	.
8c 8A\	.	<	8en/	cze-	.
8r	.	.	8f/	-muś	<
8FF/	2ee-X 2cc 2f\	.	8g/	mnie	.
8r	.	.	8a/	nie-	.
8c 8F\	.	.	8b-\	-bo-	.
8r	.	.	8cc\	-dze	[
!!LO:PB:g=original
=53	=53	=53	=53	=53	=53
*^	*	*	*	*	*
2.B-/	(4BB-\	(>4dd 4f/	.	(8dd\L	ach	.
.	.	.	.	8ff\J	.	.
.	4D\	4ff 4a-X/	.	[4aa-X\	.	.
.	2E-\	4ee- 4g-X;/	[ f	16aa-;\LL]	.	.
.	.	.	>	16gg-X\	.	.
.	.	.	.	16ee-\	.	.
.	.	.	.	16b-\JJ	.	.
4c-X/	.	4g- 4e-/	]]	16dd-X/LL	.	.
.	.	.	.	16cc-X/	.	.
.	.	.	.	16g-X/	.	.
.	.	.	.	16e-/JJ	.	.
*v	*v	*	*	*	*	*
=54	=54	=54	=54	=54	=54
4F\)	8f 8d/)	p	8dn/)	\!	.
.	8r	.	16r	.	.
.	.	.	16e-/	ko-	.
(>8.B-\L	8dd 8f 8d/	.	16en/LL	-cha-	.
.	.	.	16f/JJ	.	.
.	.	.	8qa/	.	.
.	8r	.	16g/LL	-nie	.
16F\Jk)	.	.	16f/JJ	.	.
8F\	4r	.	4.ff\	po-	.
8r	.	.	.	.	.
4r	8cc 8a 8f 8e-/	.	.	.	.
.	8r	.	16ee-X\LL	-znać	.
.	.	.	16cc\JJ	.	.
!!LO:LB:g=original
=55	=55	=55	=55	=55	=55
8r	8r	.	8a/	dał	.
8D'\L	8aL 8g-X 8c/	.	8r	.	.
8E-'\	8a 8f 8c/	.	4r	.	.
8En'\J	8aJ 8en 8c/	.	.	.	.
8.F\L	[2a 2e-X 2c/	.	2r	.	.
16G-X\Jk	.	.	.	.	.
[<4G-^\	.	.	.	.	.
=56	=56	=56	=56	=56	=56
*^	*^	*	*	*	*
8.c/L	(2G-\]	8.a/L]	8.e-\L	<	16a/LL	co	.
.	.	.	.	.	16b-/JJ	.	.
.	.	.	.	.	16cc\LL	ko-	.
16B-/Jk	.	16b-/Jk	16e-\Jk	[	16dd\JJ	.	.
[4A/	.	[4cc/	[4e-\	sf >	[4ee-;\	-cha-	.
!	!	!	!	!LO:DY:b=2	!	!	!
8A/]	8F\)	8cc/]	8e-\]	] p	16ee-\]	.	.
.	.	.	.	.	16f/	-nie,	.
8r	8ryy	8r	8ryy	.	16en/	co	.
.	.	.	.	.	16f/	ko-	.
4r;	4ryy	4r;	4ryy	.	16g/	-cha-	.
.	.	.	.	.	16f/	-nie	.
.	.	.	.	.	16.dd;\	po-	.
.	.	.	.	.	32cc\	-znać	.
*	*	*v	*v	*	*	*	*
!!LO:LB:g=original
=57	=57	=57	=57	=57	=57	=57
*ped	*	*	*	*	*	*
4BB- 4BBB-/	2ryy	8b- 8d/	.	4b-\	dał!	.
.	.	8r	.	.	.	.
4B- 4F 4D/	.	(16ff\LL	f	4r	.	.
.	.	16een\	.	.	.	.
*Xped	*	*	*	*	*	*
.	.	16gg\	.	.	.	.
.	.	16ff\JJ	.	.	.	.
4r	2BB-\	8bb-\)	.	2r	.	.
.	.	8r	.	.	.	.
4B- 4F 4D/	.	(16aa\LL	.	.	.	.
.	.	16bb-\	.	.	.	.
.	.	16ccc\	.	.	.	.
.	.	16bb-\JJ	.	.	.	.
=58	=58	=58	=58	=58	=58	=58
*	*	*^	*	*	*	*
4r	2BB-\	8gg\)	2ryy	.	1r	.	.
!	!	!	!	!LO:HP:a	!	!	!
.	.	8r	.	<	.	.	.
4B- 4G 4E-/	.	(16cc\LL	.	.	.	.	.
.	.	16bn\	.	.	.	.	.
.	.	16dd\	.	.	.	.	.
.	.	16cc\JJ	.	.	.	.	.
4r	2BB-\	4ff/	2f\	[	.	.	.
!	!	!	!	!LO:HP:a	!	!	!
.	.	.	.	>	.	.	.
4A 4F 4C/	.	16ee-/LL	.	.	.	.	.
.	.	16dd/	.	.	.	.	.
.	.	16cc/	.	.	.	.	.
.	.	16dd/JJ	.	]	.	.	.
*v	*v	*	*	*	*	*	*
*	*v	*v	*	*	*	*
!!LO:LB:g=original
=59	=59	=59	=59	=59	=59
8BB-/	8b-/)	.	1r	.	.
8r	8r	.	.	.	.
8B- 8F 8D\	(16f/LL	p	.	.	.
.	16en/	.	.	.	.
8r	16g/	.	.	.	.
.	16f/JJ	.	.	.	.
8DD/	4b-/)	.	.	.	.
8r	.	.	.	.	.
8F 8D\	(16a/LL	.	.	.	.
.	16b-/	.	.	.	.
8r	16cc/	.	.	.	.
.	16b-/JJ	.	.	.	.
=60	=60	=60	=60	=60	=60
8EE-/	4g/)	.	1r	.	.
8r	.	.	.	.	.
8c 8G 8E-\	(16cc\LL	.	.	.	.
.	16bn\	.	.	.	.
8r	16dd\	.	.	.	.
.	16cc\JJ	.	.	.	.
8FF/	8.ff^\L	pp	.	.	.
8r	.	.	.	.	.
.	32ee-\LL	.	.	.	.
!	!LO:TX:b:i:t=riten.	!	!	!	!
.	32cc\JJJ	.	.	.	.
8A 8F 8C\	16a'/LL	.	.	.	.
.	16f'/	.	.	.	.
8r	16e-'/	.	.	.	.
.	16c'/JJ)	.	.	.	.
=61	=61	=61	=61	=61	=61
8BB-/	8B-/	.	1r	.	.
8r	8r	.	.	.	.
4BB- 4FF 4BBB-/	4bb- 4dd 4b-\	sf	.	.	.
2r	2r	.	.	.	.
==	==	==	==	==	==
*-	*-	*-	*-	*-	*-
!!!system-decoration: <vox>{(klav)}
!!!RDF**kern: > = above
!!!RDF**kern: < = below
!!!ENC: Mateusz Solarz
!!!END: 2022-09-28
!!!ENC: Andrzej Kubiczek
!!!END: 2022-11-01
!!!YEC: Copyright 2022 Narodowy Instytut Fryderyka Chopina (https://polishscores.org)
!!!YEM: License CC-BY-4.0 (https://creativecommons.org/licenses/by/4.0)
